X:1
T:Father O'Flynn  "CYMRU"
M:6/8
L:1/8
Q:80
C:
S:Jig
K:HP
|: A | \
{Gdc}d3/2B/2G{g}A3/2B/2c | \
{Gdc}d3/2e/2d{gcd}c3/2{g}B/2{d}A | \
{Gdc}d3/2c/2d{gef}e3/2f/2g |
{a}f3/2d/2f{gef}e3/2c/2{d}A | | \
{Gdc}d3/2B/2G{g}A3/2B/2c | \
{Gdc}d3/2e/2d{gcd}c3/2{g}B/2{d}A |
{Gdc}d3/2c/2d{gef}e3/2f/2g | \
{a}f3/2d/2{c}d{gdc}d2 :: \
e |
{g}f2{GdG}f{g}f3/2g/2a | \
{ef}e3/2c/2A{GAG}A3/2B/2c | \
{Gdc}d3/2c/2d{gcd}B3/2e/2d |
{g}c3/2{d}A/2{e}A{GAG}A3 | | \
{g}B/2{d}G3/2{d}B{gBd}B3/2c/2d | \
{g}A2{GdGe}A{GAG}A3/2B/2c |
{Gdc}d3/2c/2d{gef}e3/2f/2g | \
{a}f3/2d/2{c}d{gdc}d2 :|
